X:1     %Music
T:gavotted'YVES HAIRE Ton Doub     %Tune name
C:Composer by joelhuby     %Tune composer
I:Remarks     %Tune infos
Q:1/4=208     %Tempo
V:1     %
     %!STAVE 0 'Staff 1' @
     %!INSTR 'Piano' 0 0 @
|:
M:6/8     %Meter
L:1/8     %
K:C
"E"e2 "e"g "C"e2 "a"d |"E"c2 "e"B "E"A3 |"e"e2 "E"d "e"g2 "C"f |"a"e3 "A"e3 ::
"a"e2 "D"g "g"e2 "E"d |"e"c2 "C"B "a"A3 |"C"A"a"B"A"c "a"d2 "D"e |"g"d2 "C"c "g"B3 |
"A"e2 "g"g "G"e2 "g"d |"D"c2 "g"B "C"A3 |"g"c"G"B"g"A "C"B2 "a"^G |"D"A3 "g"A3 ::
"C"G2 "g"d "A"e2 "g"d |"G"c2 "g"d "C"B3 |"a"G2 "C"B "a"A"D"B"g"A |"A"G3 "a"G3 ::
"D"G2 "c"d "E"e2 "c"d |"E"c2 "e"d "D"B3 |"g"G2 "A"B "a"A2 "C"B |"a"c2 "D"A "g"B3 |
"A"G2 "a"d e2 d |c2 d B3 |G2 B ABA |G3 G3 ::
c2 B A2 B |c2 A B3 |d2 c B2 G |A3 A3 ::
e2 d c2 d |e2 c d3 |B2 c d2 e |d2 B c3 |
A2 B c2 d |c2 A B3 |d2 c B2 G |A3 A3 :|
     %End of file

